assets/icons/more2.svg

<svg width="25" height="24" viewBox="0 0 25 24" fill="none" xmlns="http://www.w3.org/2000/svg">
<path fill-rule="evenodd" clip-rule="evenodd" d="M11.1221 12.0005C11.1221 11.034 11.9056 10.2505 12.8721 10.2505H12.8811C13.8476 10.2505 14.6311 11.034 14.6311 12.0005C14.6311 12.967 13.8476 13.7505 12.8811 13.7505H12.8721C11.9056 13.7505 11.1221 12.967 11.1221 12.0005Z" fill="white"/>
<path fill-rule="evenodd" clip-rule="evenodd" d="M11.1143 18.0005C11.1143 17.034 11.8978 16.2505 12.8643 16.2505H12.8733C13.8398 16.2505 14.6233 17.034 14.6233 18.0005C14.6233 18.967 13.8398 19.7505 12.8733 19.7505H12.8643C11.8978 19.7505 11.1143 18.967 11.1143 18.0005Z" fill="white"/>
<path fill-rule="evenodd" clip-rule="evenodd" d="M11.1299 6.00049C11.1299 5.03399 11.9134 4.25049 12.8799 4.25049H12.8889C13.8554 4.25049 14.6389 5.03399 14.6389 6.00049C14.6389 6.96699 13.8554 7.75049 12.8889 7.75049H12.8799C11.9134 7.75049 11.1299 6.96699 11.1299 6.00049Z" fill="white"/>
</svg>

<svg xmlns="http://www.w3.org/2000/svg" width="25" height="24" fill="none" viewBox="0 0 25 24"><path fill="#fff" fill-rule="evenodd" d="M11.122 12c0-.966.784-1.75 1.75-1.75h.01a1.75 1.75 0 1 1 0 3.5h-.01a1.75 1.75 0 0 1-1.75-1.75m-.008 6c0-.966.784-1.75 1.75-1.75h.01a1.75 1.75 0 1 1 0 3.5h-.01a1.75 1.75 0 0 1-1.75-1.75m.016-12c0-.966.783-1.75 1.75-1.75h.009a1.75 1.75 0 1 1 0 3.5h-.01A1.75 1.75 0 0 1 11.13 6" clip-rule="evenodd"/></svg>
